X:5
T: Es fuhr sich ein Pfalzgraf
N: L0039
O: Europa, Mitteleuropa, Deutschland
N: Aus Zuccalmaglios Nachlass
R: Lied
M: 2/4
L: 1/8
K: D
E | A2AB | =c2BA | B=cBA | G3
A | A2E=F | G2G=F | E2=FE | D2z

@@@ Tune index: 5409
